src/icons/plug.svg

<svg width="16" height="16" viewBox="0 0 16 16" fill="none" xmlns="http://www.w3.org/2000/svg">
<path fill-rule="evenodd" clip-rule="evenodd" d="M7 1H6V4H4.5L4 4.5V8C4 9.06087 4.42143 10.0783 5.17157 10.8284C5.80289 11.4597 6.6235 11.8582 7.5 11.9686V15H8.5V11.9686C9.3765 11.8582 10.1971 11.4597 10.8284 10.8284C11.5786 10.0783 12 9.06087 12 8V4.5L11.5 4H10V1H9V4H7V1ZM10.1213 10.1213C9.55871 10.6839 8.79565 11 8 11C7.20435 11 6.44129 10.6839 5.87868 10.1213C5.31607 9.55871 5 8.79565 5 8V5H11V8C11 8.79565 10.6839 9.55871 10.1213 10.1213Z" fill="white"/>
</svg>

<svg width="16" height="16" xmlns="http://www.w3.org/2000/svg"><path fill-rule="evenodd" clip-rule="evenodd" d="M7 1H6v3H4.5l-.5.5V8a4 4 0 0 0 3.5 3.969V15h1v-3.031A4 4 0 0 0 12 8V4.5l-.5-.5H10V1H9v3H7V1zm3.121 9.121A3 3 0 0 1 5 8V5h6v3a3 3 0 0 1-.879 2.121z"/></svg>
